src/topics/icons/riot.svg

<?xml version="1.0" encoding="UTF-8" standalone="no"?>
<svg width="512px" height="248px" viewBox="0 0 512 248" version="1.1" xmlns="http://www.w3.org/2000/svg" xmlns:xlink="http://www.w3.org/1999/xlink" preserveAspectRatio="xMidYMid">
	<g>
		<path d="M481.1582,247.153 L30.8422,247.153 C13.8082,247.153 0.0002,233.345 0.0002,216.311 L0.0002,30.841 C0.0002,13.808 13.8082,0 30.8422,0 L481.1582,0 C498.1912,0 512.0002,13.808 512.0002,30.841 L512.0002,216.311 C512.0002,233.345 498.1912,247.153 481.1582,247.153" fill="#FF0044"></path>
		<path d="M125.6714,119.308 C131.6924,119.308 136.2424,117.503 136.2424,110.813 C136.2424,103.988 131.2914,101.58 125.6714,101.58 L113.2274,101.58 L113.2274,119.308 L125.6714,119.308 Z M83.2544,76 L125.9394,76 C156.3134,76 168.4314,89.064 168.4314,108.601 C168.4314,123.161 161.3594,130.894 150.9224,136.247 L172.1174,167.454 L137.4684,167.454 L120.1434,140.854 L113.2274,140.854 L113.2274,167.454 L83.2544,167.454 L83.2544,76 Z M188.346,76 L218.319,76 L218.319,167.454 L188.346,167.454 L188.346,76 Z M285.8617,76 C317.0187,76 335.5797,98.328 335.5797,123.527 C335.5797,148.466 317.1507,170.793 285.8617,170.793 C254.5727,170.793 236.0117,148.466 236.0117,123.527 C236.0117,98.328 254.7057,76 285.8617,76 Z M371.415,101.607 L343.717,101.607 L343.717,76 L428.953,76 L428.953,101.607 L401.255,101.607 L401.255,167.454 L371.415,167.454 L371.415,101.607 Z M285.8617,144.004 C295.9707,144.004 304.5107,136.062 304.5107,123.527 C304.5107,110.993 297.6857,102.79 285.8617,102.79 C274.0377,102.79 267.2127,110.993 267.2127,123.527 C267.2127,136.062 275.7527,144.004 285.8617,144.004 Z" fill="#FFFFFF"></path>
	</g>
</svg>

<svg height="248" preserveAspectRatio="xMidYMid" viewBox="0 0 512 248" width="512" xmlns="http://www.w3.org/2000/svg"><path d="m481.1582 247.153h-450.316c-17.034 0-30.842-13.808-30.842-30.842v-185.47c0-17.033 13.808-30.841 30.842-30.841h450.316c17.033 0 30.842 13.808 30.842 30.841v185.47c0 17.034-13.809 30.842-30.842 30.842" fill="#f04"/><path d="m125.6714 119.308c6.021 0 10.571-1.805 10.571-8.495 0-6.825-4.951-9.233-10.571-9.233h-12.444v17.728zm-42.417-43.308h42.685c30.374 0 42.492 13.064 42.492 32.601 0 14.56-7.072 22.293-17.509 27.646l21.195 31.207h-34.649l-17.325-26.6h-6.916v26.6h-29.973zm105.0916 0h29.973v91.454h-29.973zm97.5157 0c31.157 0 49.718 22.328 49.718 47.527 0 24.939-18.429 47.266-49.718 47.266s-49.85-22.327-49.85-47.266c0-25.199 18.694-47.527 49.85-47.527zm85.5533 25.607h-27.698v-25.607h85.236v25.607h-27.698v65.847h-29.84zm-85.5533 42.397c10.109 0 18.649-7.942 18.649-20.477 0-12.534-6.825-20.737-18.649-20.737s-18.649 8.203-18.649 20.737c0 12.535 8.54 20.477 18.649 20.477z" fill="#fff"/></svg>
